v/0.4.11/design-resources/icons/wf_doctype-icons/file-paginate.svg

<?xml version="1.0" encoding="utf-8"?>
<!-- Generated by IcoMoon.io -->
<!DOCTYPE svg PUBLIC "-//W3C//DTD SVG 1.1//EN" "http://www.w3.org/Graphics/SVG/1.1/DTD/svg11.dtd">
<svg version="1.1" xmlns="http://www.w3.org/2000/svg" xmlns:xlink="http://www.w3.org/1999/xlink" width="512" height="512" viewBox="0 0 512 512">
<g>
</g>
	<path d="M384 32h-256v64h-64v384h320v-64h64v-320c0-35.344-28.656-64-64-64zM352 448h-256v-320h32v288h224v32zM416 384h-256v-320h224c17.658 0 32 14.359 32 32v288zM320 128h-128v32h192v-32zM192 192h192v32h-192zM192 256h192v32h-192z" fill="#595959" />
</svg>

<svg xmlns="http://www.w3.org/2000/svg" width="512" height="512" viewBox="0 0 512 512"><path stroke="#449FDB" d="M0 0"/><path d="M384 32H128v64H64v384h320v-64h64V96c0-35.344-28.656-64-64-64zm-32 416H96V128h32v288h224v32zm64-64H160V64h224c17.658 0 32 14.36 32 32v288zm-96-256H192v32h192v-32zm-128 64h192v32H192zm0 64h192v32H192z" fill="#595959"/></svg>
